X:1
T:Title
%%score { ( 1 2 ) | ( 3 4 ) }
L:1/8
M:4/4
K:D
V:1 treble nm="Grand Piano"
V:2 treble 
V:3 bass 
V:4 bass 
V:1
 z4 z2[Q:1/4=100] z E | [A,DF]2 [A,DF]2 [DFB]2 [A,EA]2 |[M:3/4] [A,FA]4 [A,DF]2 | %3
[M:1/4][K:bass] [G,CE]2 |[M:4/4] [F,B,D]2 [F,B,D]2 [F,B,D]2 [A,CE]2 |[M:3/4][K:treble] [A,DF]6 | %6
[M:1/4] D-[DE] |[M:4/4] [A,DF]2 [A,DF]2 [DFB]2 [A,EA]2 |[M:3/4] [A,FA]4 [A,DF]2 | %9
[M:1/4][K:bass] [G,CE]2 |[M:4/4] [F,B,D]2[K:treble] [B,D]2 [A,DF]2[K:bass] .[A,CE]2 | %11
 [F,D]6[K:treble] F-[^A,EF] | [B,DF]2 [DFB]2 [Fd]2 [Ec]2 | [B,DB]4 [A,EA]2 [CEG]2 | %14
 [A,DF]2 [G,CE]2 [A,D]2 [A,DF]2 | [A,CE]6 [^A,CF]2 | [B,DF]2 [DFB]2 d2 c2 | B4 z4 | %18
 z4 z2 [CE]2[Q:1/4=98][Q:1/4=97][Q:1/4=95][Q:1/4=94][Q:1/4=92][Q:1/4=91][Q:1/4=89][Q:1/4=88][Q:1/4=86][Q:1/4=84][Q:1/4=83][Q:1/4=81][Q:1/4=80][Q:1/4=78][Q:1/4=77] | %19
[M:3/4] D6 |] %20
V:2
 z4 z2 D2 | x8 |[M:3/4] x6 |[M:1/4][K:bass] x2 |[M:4/4] x8 |[M:3/4][K:treble] x6 |[M:1/4] F, z | %7
[M:4/4] x8 |[M:3/4] x6 |[M:1/4][K:bass] x2 |[M:4/4] x2[K:treble] x4[K:bass] x2 | %11
 z4 z2[K:treble] .[A,D]2 | x8 | x8 | x8 | x8 | x8 | z2 E2 A2 G2 | F2 D2 F2 z G, |[M:3/4] x6 |] %20
V:3
 z4 z2 F,G, | D,2 D,2 B,,2 C,2 |[M:3/4] D,4 D,2 |[M:1/4] A,,2 |[M:4/4] B,,2 B,,2 B,,2 A,,2 | %5
[M:3/4] D,6 |[M:1/4] z G, |[M:4/4] D,2 D,2 B,,2 C,2 |[M:3/4] D,4 D,2 |[M:1/4] A,,2 | %10
[M:4/4] B,,2 G,,2 A,,2 z G, | D,6 D,C, | B,,2 B,,2 [F,B,]2 [F,^A,]2 | B,,4 C,2 A,,2 | %14
 D,2 E,2 F,2 D,2 | A,,6 F,E, | D,2 B,,2 [F,B,F]2 [F,^A,E]2 | [B,D]2 C2 [F,D]2 [E,A,C]2 | %18
 [D,A,D]2 [G,B,]2 [A,D]2 .[A,,A,]2 |[M:3/4] [D,F,]6 |] %20
V:4
 z4 z2 D,2 | x8 |[M:3/4] x6 |[M:1/4] x2 |[M:4/4] x8 |[M:3/4] x6 |[M:1/4] D,2 |[M:4/4] x8 | %8
[M:3/4] x6 |[M:1/4] x2 |[M:4/4] z4 z2 A,,2 | x8 | x8 | x8 | x8 | x8 | x8 | G,4 z4 | x8 | %19
[M:3/4] x6 |] %20

